app/images/expand.svg

<?xml version="1.0" encoding="UTF-8"?>
<svg width="16px" height="16px" viewBox="0 0 16 16" version="1.1" xmlns="http://www.w3.org/2000/svg" xmlns:xlink="http://www.w3.org/1999/xlink">
    <!-- Generator: Sketch 50.2 (55047) - http://www.bohemiancoding.com/sketch -->
    <title>expand</title>
    <desc>Created with Sketch.</desc>
    <defs></defs>
    <g id="Extension-(mobile-form-factor)" stroke="none" stroke-width="1" fill="none" fill-rule="evenodd">
        <g id="expand" fill="#FFFFFF" fill-rule="nonzero">
            <path d="M15.4802977,0.0647543729 C15.3777028,0.0227060788 15.2692212,0 15.1590578,0 L10.1134046,0 C9.64920448,0 9.27246238,0.376752715 9.27246238,0.840965882 C9.27246238,1.30602001 9.64920448,1.68193176 10.1134046,1.68193176 L13.1290233,1.68193176 L8.77993963,6.03113791 C8.45113123,6.35995557 8.45113123,6.89228697 8.77993963,7.22026366 C8.94392336,7.38509298 9.15920457,7.46666667 9.37448577,7.46666667 C9.58976698,7.46666667 9.80504818,7.38509298 9.96903191,7.22026366 L14.3181156,2.87105752 L14.3181156,5.88676117 C14.3181156,6.35181531 14.6948577,6.72772705 15.1590578,6.72772705 C15.6232579,6.72772705 16,6.35181531 16,5.88676117 L16,0.840965882 C16,0.731640317 15.9781355,0.623155718 15.9352475,0.519716915 C15.8494713,0.31452124 15.6863286,0.150532893 15.4802977,0.0647543729 Z" id="Fill-1" transform="translate(12.266667, 3.733333) rotate(-360.000000) translate(-12.266667, -3.733333) "></path>
            <path d="M6.94696439,8.59808771 C6.84436944,8.55603941 6.73588789,8.53333333 6.62572446,8.53333333 L1.58007124,8.53333333 C1.11587115,8.53333333 0.739129042,8.91008605 0.739129042,9.37429922 C0.739129042,9.83935335 1.11587115,10.2152651 1.58007124,10.2152651 L4.59568999,10.2152651 L0.246606301,14.5644712 C-0.0822021004,14.8932889 -0.0822021004,15.4256203 0.246606301,15.753597 C0.410590031,15.9184263 0.625871235,16 0.841152439,16 C1.05643364,16 1.27171485,15.9184263 1.43569858,15.753597 L5.78478226,11.4043909 L5.78478226,14.4200945 C5.78478226,14.8851486 6.16152437,15.2610604 6.62572446,15.2610604 C7.08992456,15.2610604 7.46666667,14.8851486 7.46666667,14.4200945 L7.46666667,9.37429922 C7.46666667,9.26497365 7.44480217,9.15648905 7.40191412,9.05305025 C7.31613801,8.84785457 7.15299522,8.68386623 6.94696439,8.59808771 Z" id="Fill-1-Copy" transform="translate(3.733333, 12.266667) rotate(-180.000000) translate(-3.733333, -12.266667) "></path>
        </g>
    </g>
</svg>

<svg height="16" viewBox="0 0 16 16" width="16" xmlns="http://www.w3.org/2000/svg"><g fill="#fff"><path d="m15.4802977.06475437c-.1025949-.04204829-.2110765-.06475437-.3212399-.06475437h-5.0456532c-.46420012 0-.84094222.37675272-.84094222.84096588 0 .46505413.3767421.84096588.84094222.84096588h3.0156187l-4.34908367 4.34920615c-.3288084.32881766-.3288084.86114906 0 1.18912575.16398373.16482932.37926494.24640301.59454614.24640301.21528121 0 .43056241-.08157369.59454614-.24640301l4.34908369-4.34920614v3.01570365c0 .46505414.3767421.84096588.8409422.84096588s.8409422-.37591174.8409422-.84096588v-5.04579529c0-.10932556-.0218645-.21781016-.0647525-.32124897-.0857762-.20519567-.2489189-.36918402-.4549498-.45496254z"/><path d="m6.94696439 8.59808771c-.10259495-.0420483-.2110765-.06475438-.32123993-.06475438h-5.04565322c-.46420009 0-.8409422.37675272-.8409422.84096589 0 .46505413.37674211.84096588.8409422.84096588h3.01561875l-4.34908369 4.3492061c-.3288084.3288177-.3288084.8611491 0 1.1891258.16398373.1648293.37926494.246403.59454614.246403s.43056241-.0815737.59454614-.246403l4.34908368-4.3492061v3.0157036c0 .4650541.37674211.8409659.8409422.8409659.4642001 0 .84094221-.3759118.84094221-.8409659v-5.04579528c0-.10932557-.0218645-.21781017-.06475255-.32124897-.08577611-.20519568-.2489189-.36918402-.45494973-.45496254z" transform="matrix(-1 0 0 -1 7.466666 24.533334)"/></g></svg>
